Dominus_Dark_Funeral/22/places/folder-cloud.svg

<svg xmlns="http://www.w3.org/2000/svg" width="24" height="24" viewBox="0 0 12.7 12.7"><defs><linearGradient id="a"><stop offset="0" stop-color="#216778"/><stop offset="1" stop-color="#5fbcd3"/></linearGradient></defs><path style="marker:none" d="M5.135 2.836a2.337 2.337 0 0 0-2.33 2.35v.079c-.995.259-1.771 1.155-1.771 2.25a2.353 2.353 0 0 0 2.349 2.349h5.853v-.02a2.53 2.53 0 0 0-.2-5.057l-.218.02a2.096 2.096 0 0 0-1.633-.796h-.04a2.294 2.294 0 0 0-1.99-1.175z" overflow="visible" color="#000" fill="#e6e6e6"/></svg>

<?xml version="1.0" encoding="UTF-8" standalone="no"?>
<svg
   xmlns:dc="http://purl.org/dc/elements/1.1/"
   xmlns:cc="http://creativecommons.org/ns#"
   xmlns:rdf="http://www.w3.org/1999/02/22-rdf-syntax-ns#"
   xmlns:svg="http://www.w3.org/2000/svg"
   xmlns="http://www.w3.org/2000/svg"
   xmlns:sodipodi="http://sodipodi.sourceforge.net/DTD/sodipodi-0.dtd"
   xmlns:inkscape="http://www.inkscape.org/namespaces/inkscape"
   width="24"
   height="24"
   viewBox="0 0 12.7 12.7"
   version="1.1"
   id="svg11"
   sodipodi:docname="folder-cloud.svg"
   inkscape:version="0.92.4 (5da689c313, 2019-01-14)">
  <metadata
     id="metadata15">
    <rdf:RDF>
      <cc:Work
         rdf:about="">
        <dc:format>image/svg+xml</dc:format>
        <dc:type
           rdf:resource="http://purl.org/dc/dcmitype/StillImage" />
        <dc:title></dc:title>
      </cc:Work>
    </rdf:RDF>
  </metadata>
  <sodipodi:namedview
     pagecolor="#ffffff"
     bordercolor="#666666"
     borderopacity="1"
     objecttolerance="10"
     gridtolerance="10"
     guidetolerance="10"
     inkscape:pageopacity="0"
     inkscape:pageshadow="2"
     inkscape:window-width="1112"
     inkscape:window-height="480"
     id="namedview13"
     showgrid="false"
     inkscape:zoom="9.8333333"
     inkscape:cx="1.0677966"
     inkscape:cy="12"
     inkscape:window-x="0"
     inkscape:window-y="25"
     inkscape:window-maximized="0"
     inkscape:current-layer="svg11" />
  <defs
     id="defs7">
    <linearGradient
       id="a">
      <stop
         offset="0"
         stop-color="#216778"
         id="stop2" />
      <stop
         offset="1"
         stop-color="#5fbcd3"
         id="stop4" />
    </linearGradient>
  </defs>
  <path
     style="color:#000000;overflow:visible;fill:#e6e6e6;marker:none"
     d="m 5.135,2.836 a 2.337,2.337 0 0 0 -2.33,2.35 V 5.265 C 1.81,5.524 1.034,6.42 1.034,7.515 A 2.353,2.353 0 0 0 3.383,9.864 H 9.236 V 9.844 A 2.5304767,2.5304767 0 0 0 9.036,4.787 L 8.818,4.807 A 2.096,2.096 0 0 0 7.185,4.011 H 7.145 A 2.294,2.294 0 0 0 5.155,2.836 Z"
     overflow="visible"
     id="path9"
     inkscape:connector-curvature="0" />
</svg>
